src/assets/icons/Spotify.svg

<?xml version="1.0" encoding="UTF-8"?>
<svg width="24px" height="24px" viewBox="0 0 24 24" version="1.1" xmlns="http://www.w3.org/2000/svg" xmlns:xlink="http://www.w3.org/1999/xlink">
    <!-- Generator: Sketch 60 (88103) - https://sketch.com -->
    <title>09 Icons / Social / Spotify</title>
    <desc>Created with Sketch.</desc>

    <g stroke="none" stroke-width="1" fill="none" fill-rule="evenodd">
        <path fill="white" d="M19.0984321,10.6382623 C15.2303118,8.3410912 8.84993373,8.12987354 5.15735047,9.25058811 C4.56425015,9.43056733 3.93718878,9.09582891 3.75749615,8.50287188 C3.57780352,7.90948497 3.91225535,7.28285349 4.50564226,7.10258768 C8.74446819,5.81593685 15.7910273,6.06441135 20.2440801,8.70778453 C20.7774262,9.02446772 20.9523901,9.71328947 20.63628,10.2457758 C20.3198835,10.7791218 19.6304885,10.9549455 19.0984321,10.6382623 Z M18.9717588,14.0406721 C18.700357,14.4810193 18.1245955,14.6191562 17.6848214,14.3487575 C14.4599549,12.36655 9.54248116,11.7922214 5.7272369,12.9503361 C5.23243734,13.0997934 4.70998173,12.8209403 4.55966469,12.3270005 C4.41063731,11.8323442 4.68963376,11.3107484 5.18357355,11.160288 C9.54190798,9.83767001 14.9600564,10.4782012 18.66396,12.7544511 C19.103734,13.0252797 19.2421576,13.6013279 18.9717588,14.0406721 Z M17.5034092,17.3082407 C17.2877494,17.6618941 16.8273408,17.7726616 16.474977,17.5571451 C13.6570698,15.8348758 10.1102182,15.4459716 5.93315262,16.4000334 C5.5306354,16.4923158 5.12940783,16.2401156 5.03755538,15.8375984 C4.94541633,15.4352244 5.19675674,15.0339969 5.60013374,14.9421444 C10.1712621,13.8972332 14.0922585,14.3468947 17.2552213,16.2796652 C17.6078717,16.4950384 17.7189258,16.9557336 17.5034092,17.3082407 Z M12,0 C5.37272369,0 0,5.37258039 0,11.9998567 C0,18.6278495 5.37272369,24 12,24 C18.6275629,24 24,18.6278495 24,11.9998567 C24,5.37258039 18.6275629,0 12,0 L12,0 Z"></path>
        <path fill="#000000" d="M19.0984321,10.6382623 C15.2303118,8.3410912 8.84993373,8.12987354 5.15735047,9.25058811 C4.56425015,9.43056733 3.93718878,9.09582891 3.75749615,8.50287188 C3.57780352,7.90948497 3.91225535,7.28285349 4.50564226,7.10258768 C8.74446819,5.81593685 15.7910273,6.06441135 20.2440801,8.70778453 C20.7774262,9.02446772 20.9523901,9.71328947 20.63628,10.2457758 C20.3198835,10.7791218 19.6304885,10.9549455 19.0984321,10.6382623 Z M18.9717588,14.0406721 C18.700357,14.4810193 18.1245955,14.6191562 17.6848214,14.3487575 C14.4599549,12.36655 9.54248116,11.7922214 5.7272369,12.9503361 C5.23243734,13.0997934 4.70998173,12.8209403 4.55966469,12.3270005 C4.41063731,11.8323442 4.68963376,11.3107484 5.18357355,11.160288 C9.54190798,9.83767001 14.9600564,10.4782012 18.66396,12.7544511 C19.103734,13.0252797 19.2421576,13.6013279 18.9717588,14.0406721 Z M17.5034092,17.3082407 C17.2877494,17.6618941 16.8273408,17.7726616 16.474977,17.5571451 C13.6570698,15.8348758 10.1102182,15.4459716 5.93315262,16.4000334 C5.5306354,16.4923158 5.12940783,16.2401156 5.03755538,15.8375984 C4.94541633,15.4352244 5.19675674,15.0339969 5.60013374,14.9421444 C10.1712621,13.8972332 14.0922585,14.3468947 17.2552213,16.2796652 C17.6078717,16.4950384 17.7189258,16.9557336 17.5034092,17.3082407 Z M12,0 C5.37272369,0 0,5.37258039 0,11.9998567 C0,18.6278495 5.37272369,24 12,24 C18.6275629,24 24,18.6278495 24,11.9998567 C24,5.37258039 18.6275629,0 12,0 L12,0 Z"></path>
    </g>
</svg>

<svg width="24" height="24" viewBox="0 0 24 24" xmlns="http://www.w3.org/2000/svg" xmlns:xlink="http://www.w3.org/1999/xlink"><defs><path d="M19.098 10.638C15.23 8.341 8.85 8.13 5.158 9.251a1.122 1.122 0 11-.652-2.148C8.744 5.816 15.79 6.064 20.244 8.708a1.122 1.122 0 01-1.146 1.93zm-.126 3.403a.936.936 0 01-1.287.308c-3.225-1.982-8.143-2.557-11.958-1.399a.937.937 0 01-1.167-.623.937.937 0 01.624-1.167c4.358-1.322 9.776-.682 13.48 1.594.44.271.578.847.308 1.287zm-1.469 3.267a.747.747 0 01-1.028.25c-2.818-1.723-6.365-2.112-10.542-1.158a.748.748 0 11-.333-1.458c4.571-1.045 8.492-.595 11.655 1.338a.748.748 0 01.248 1.028zM12 0C5.373 0 0 5.373 0 12c0 6.628 5.373 12 12 12 6.628 0 12-5.372 12-12 0-6.627-5.372-12-12-12z" /></defs><use fill="#000" xlink:href="#a" fill-rule="evenodd"/></svg>
